styles/icons/eye-closed.svg

<?xml version="1.0" encoding="UTF-8"?>
<svg width="24px" height="24px" viewBox="0 0 24 24" version="1.1" xmlns="http://www.w3.org/2000/svg" xmlns:xlink="http://www.w3.org/1999/xlink">
    <!-- Generator: Sketch 48.1 (47250) - http://www.bohemiancoding.com/sketch -->
    <title>Icon/eye/closed</title>
    <desc>Created with Sketch.</desc>
    <defs></defs>
    <g id="Core/Icons" stroke="none" stroke-width="1" fill="none" fill-rule="evenodd" transform="translate(-1320.000000, -820.000000)">
        <g id="Visibility" transform="translate(1160.000000, 780.000000)" fill="#333333">
            <g id="Icon/eye/closed-a01" transform="translate(160.000000, 40.000000)">
                <path d="M16.0619657,7.01879546 L19.0403806,4.04038059 C19.2942214,3.7865398 19.7057786,3.7865398 19.9596194,4.04038059 C20.2134602,4.29422138 20.2134602,4.70577862 19.9596194,4.95961941 L17.2436761,7.6755627 C20.0978248,9.45073678 22,12 22,12 C22,12 17.523,18 12,18 C10.5537516,18 9.17922758,17.5885785 7.93803428,16.9812045 L4.95961941,19.9596194 C4.70577862,20.2134602 4.29422138,20.2134602 4.04038059,19.9596194 C3.7865398,19.7057786 3.7865398,19.2942214 4.04038059,19.0403806 L6.75632389,16.3244373 C3.90217524,14.5492632 2,12 2,12 C2,12 6.477,6 12,6 C13.4462484,6 14.8207724,6.41142149 16.0619657,7.01879546 Z M14.8577289,8.22303229 C13.9546579,7.8419591 12.9910383,7.6 12,7.6 C8.803,7.6 5.702,10.235 4.091,11.993 C4.90001011,12.8760259 6.26110114,14.1965686 7.91889643,15.1618648 L14.8577289,8.22303229 Z M16.0811036,8.83813524 L9.14227111,15.7769677 C10.0453421,16.1580409 11.0089617,16.4 12,16.4 C15.197,16.4 18.298,13.765 19.909,12.007 C19.0999899,11.1239741 17.7388989,9.80343142 16.0811036,8.83813524 Z" id="Icon"></path>
            </g>
        </g>
    </g>
</svg>

<svg fill="#333333" height="24" width="24" viewBox="0 0 24 24" xmlns="http://www.w3.org/2000/svg">
    <path d="M16.1,7l3-3c0.3-0.3,0.7-0.3,0.9,0s0.3,0.7,0,0.9l-2.7,2.7C20.1,9.5,22,12,22,12s-4.5,6-10,6c-1.4,0-2.8-0.4-4.1-1l-3,3c-0.3,0.3-0.7,0.3-0.9,0S3.8,19.3,4,19l2.7-2.7C3.9,14.5,2,12,2,12s4.5-6,10-6C13.4,6,14.8,6.4,16.1,7z M14.9,8.2C14,7.8,13,7.6,12,7.6c-3.2,0-6.3,2.6-7.9,4.4c0.8,0.9,2.2,2.2,3.8,3.2L14.9,8.2z M16.1,8.8l-6.9,6.9c0.9,0.4,1.9,0.6,2.9,0.6c3.2,0,6.3-2.6,7.9-4.4C19.1,11.1,17.7,9.8,16.1,8.8z"/>
</svg>
